X: 334
T: Gege canjia balujiun
%%abc-version 2.0
%%abcx-abcm2ps-target-version 5.9.1 (29 Sep 2008)
%%abc-creator hum2abc beta
%%abcx-conversion-date 2013/10/02 07:52:30
%%abc-edited-by Helmut Schaffrath
%%humdrum-veritas 372362006
%%humdrum-veritas-data 1259891944
%%continueall 1
%%barnumbers 0
L: 1/8
M: 2/4
K: A
B2e e [I:setbarnb 1]| 
f e c B | 
B> c e A | 
B4 | 
B2e e | 
f e c B | 
B c e A | 
B4 | 
A2G F | 
E2E2 | 
e2f e | 
d cB2 | 
e> f e e | 
d c B3/ c/ | 
A> G F C | 
E4 |]  



